file/equinor.svg

<svg clip-rule="evenodd" fill-rule="evenodd" viewBox="0 0 560 400" xmlns="http://www.w3.org/2000/svg"><g fill="#ff033e" transform="matrix(.200394 0 0 .200394 137.953 -276.967)"><path d="m1354.99 1822.26c14.15-8.41 26.01-2.63 26.11 16.55l1.37 249.38c.11 20.39 1.03 19.31-16.52 29.83l-217.83 130.31c-12.99 7.77-24.68.81-24.74-13.85l-.83-258.07c-.04-14.59 2.13-17.41 13.98-24.46z"/><g stroke="#ff033e"><path d="m806.664 2317.48c-5.917 3.45-6.208 8.93.754 12.85l90.498 50.85c7.398 4.16 6.821 4.28 14.192 0l91.412-52.98c5.46-3.16 5.28-8.82-.05-11.8l-93.765-52.41c-5.303-2.96-6.769-2.74-11.726.16z" stroke-width=".12"/><path d="m1177.49 2318.25c-2.98 1.74-3.12 4.5.38 6.47l45.55 25.59c3.72 2.1 3.43 2.16 7.14.01l46.01-26.67c2.74-1.59 2.66-4.43-.02-5.93l-47.2-26.38c-2.67-1.49-3.41-1.38-5.9.07z" stroke-width=".06"/><path d="m1137.68 2393.94c-2.99-1.72-5.46-.48-5.43 3.54l.4 52.24c.03 4.27-.17 4.05 3.54 6.21l45.98 26.7c2.75 1.59 5.18.1 5.15-2.97l-.53-54.06c-.03-3.06-.49-3.64-3-5.09z" stroke-width=".06"/><path d="m1045.24 2396.8c3.92-2.26 7.17-.63 7.13 4.66l-.52 68.67c-.04 5.61.21 5.32-4.66 8.15l-60.443 35.1c-3.606 2.09-6.8.14-6.762-3.9l.697-71.06c.04-4.02.647-4.79 3.937-6.69z" stroke-width=".08"/><path d="m890.212 1953.4c-9.941-5.73-18.148-1.59-18.046 11.78l1.309 173.81c.105 14.21-.544 13.46 11.78 20.63l152.995 88.84c9.13 5.3 17.21.34 17.11-9.87l-1.76-179.87c-.1-10.17-1.64-12.11-9.97-16.91z" stroke-width=".2"/></g><path d="m122.709 906.5c-37.581.35-88.78 28.932-87.52 90.736.338 16.584 6.772 88.634 89.308 90.204 33.493.64 54.933-11.83 71.985-25.9 3.373-2.78 2.506-5.15 1.428-6.79l-11.255-17.14c-1.336-2.04-3.828-1.63-5.891-.36-15.812 9.74-25.969 19.75-56.267 19.29-41.445-.62-54.196-30.12-57.158-52.52h131.645c1.409 0 2.745-1.64 3.145-4.309 6.489-43.36-21.413-93.753-79.42-93.211zm.056 30.672c33.889-.201 48.273 26.409 46.605 38.904h-99.019c.717-6.09 11.059-38.66 52.414-38.904z" transform="translate(0 1786.85)"/><path d="m1077.61 2870.01h22.86c2.38 0 4.83-1.54 4.83-5v-94.65l80.55-50.11c1.7-1.06 2.35-3.2 1.25-5.76l-8.26-19.3c-.86-2-3.21-1.68-4.76-.75l-68.91 41.09-.25-35.08c-.02-2.98-2.68-5.34-5.01-4.51l-23.05 8.27c-2.59.93-3.5 4.12-3.5 7.02v154.09c0 2.11 1.38 4.69 4.25 4.69z"/><path d="m973.135 2789.65c0 .94-.019 1.89-.057 2.83" fill-rule="nonzero"/><path d="m959.267 906.428c-48.36.192-88.018 41.218-87.896 90.93.124 49.712 39.984 90.532 88.345 90.472 48.364-.06 88.134-40.99 88.124-90.705v-.459c-.25-49.713-40.21-90.427-88.573-90.238zm.122 30.422c31.387-.125 57.321 27.158 57.481 60.469v.31c0 33.311-25.807 60.731-57.193 60.771-31.385.04-57.254-27.31-57.335-60.616-.082-33.313 25.659-60.807 57.047-60.934z" fill-rule="nonzero" transform="translate(0 1786.85)"/><path d="m691.517 2863.31v-151.83c0-3.38.709-6.69 4.51-8.02l21.547-7.52c3.189-1.11 5.512 1.18 5.512 4.51v18.04c11.294-12.19 23.798-26.76 57.126-25.55 30.877 1.11 65.142 25.54 65.142 70.15v99.72c0 4.24-.239 6.51-5.129 6.51h-21.199c-3.516 0-5.241-2.06-5.241-5.51v-100.22c0-27.14-23.429-39.82-43.595-40.59-26.797-1.01-47.104 19.36-47.104 48.61v93.2c0 2.65-2.159 5.02-4.51 5.02h-21.046c-3.103 0-6.013-2.76-6.013-6.52z"/><path d="m623.268 2674.1v-26.58c0-2.74 1.6-4.42 4.429-5.49l21.968-8.33c4.006-1.52 6.555 1.56 6.555 4.61v26.22c0 3.76-1.621 6-4.96 7.09l-21.791 7.08c-4.095 1.33-6.201-2.05-6.201-4.6z"/><path d="m624.154 2710.42v152c0 4.76 1.753 7.62 4.783 7.62h20.197c3.74 0 6.732-2.18 6.732-5.49v-160.87c0-6.17-2.921-7.65-6.378-6.55l-21.791 6.91c-3.674 1.16-3.543 4.19-3.543 6.38z"/><path d="m587.835 2865.08c.005 2.25-1.884 4.96-5.315 4.96h-20.197c-2.343 0-5.847-1.77-5.847-5.49v-14.17c-12.444 17.54-31.513 23.3-52.441 24.09-35.127 1.32-57.949-24.38-64.311-47.48-4.314-15.67-5.137-30.01-5.137-44.29v-71.04c0-3.43.065-6.53 5.315-8.51l19.311-7.26c4.836-1.82 7.263 1.76 7.263 5.67v93.36c0 26.99 13.528 47.67 43.583 49.08 37.467 1.75 46.417-24.82 46.417-51.03v-80.78c0-3.84 1.295-6.9 4.252-7.97l20.552-7.44c2.645-.96 6.192 1.36 6.2 4.96z"/><path d="m317.918 906.439c-1.351.03-2.709.097-4.081.205-51.16 4.005-87.039 35.686-87.342 92.142-.193 35.904 22.543 85.684 84.69 88.574 22.101 1.02 42.103-7.48 60.381-22.43v81.62c0 4.83 1.424 8.41 7.142 8.39l17.91-.06c4.61-.03 6.267-3.86 6.267-8.39v-231.885c0-5.612-3.958-6.614-7.269-5.265l-20.291 8.271c-2.263.922-4.009 3.027-4.009 5.509v7.519c-15.283-16.391-33.141-24.648-53.398-24.2zm-2.209 30.057c38.836.959 57.445 31.054 56.693 63.071-.734 31.233-21.18 59.443-58.465 57.753-29.492-1.33-53.232-18.02-54.921-59.879-1.577-39.06 29.456-61.617 56.693-60.945z" transform="translate(0 1786.85)"/></g></svg>

<?xml version="1.0" encoding="UTF-8" standalone="no"?>
<!DOCTYPE svg PUBLIC "-//W3C//DTD SVG 1.1//EN" "http://www.w3.org/Graphics/SVG/1.1/DTD/svg11.dtd">
<svg width="100%" height="100%" viewBox="0 0 560 400" version="1.1" xmlns="http://www.w3.org/2000/svg" xmlns:xlink="http://www.w3.org/1999/xlink" xml:space="preserve" xmlns:serif="http://www.serif.com/" style="fill-rule:evenodd;clip-rule:evenodd;">
    <g transform="matrix(0.200394,0,0,0.200394,137.953,-276.967)">
        <path id="path5302" d="M1354.99,1822.26C1369.14,1813.85 1381,1819.63 1381.1,1838.81L1382.47,2088.19C1382.58,2108.58 1383.5,2107.5 1365.95,2118.02L1148.12,2248.33C1135.13,2256.1 1123.44,2249.14 1123.38,2234.48L1122.55,1976.41C1122.51,1961.82 1124.68,1959 1136.53,1951.95L1354.99,1822.26Z" style="fill:rgb(255,3,62);"/>
        <path id="path5294" d="M806.664,2317.48C800.747,2320.93 800.456,2326.41 807.418,2330.33L897.916,2381.18C905.314,2385.34 904.737,2385.46 912.108,2381.18L1003.52,2328.2C1008.98,2325.04 1008.8,2319.38 1003.47,2316.4L909.705,2263.99C904.402,2261.03 902.936,2261.25 897.979,2264.15L806.664,2317.48Z" style="fill:rgb(255,3,62);stroke:rgb(255,3,62);stroke-width:0.12px;"/>
        <path id="path5296" d="M1177.49,2318.25C1174.51,2319.99 1174.37,2322.75 1177.87,2324.72L1223.42,2350.31C1227.14,2352.41 1226.85,2352.47 1230.56,2350.32L1276.57,2323.65C1279.31,2322.06 1279.23,2319.22 1276.55,2317.72L1229.35,2291.34C1226.68,2289.85 1225.94,2289.96 1223.45,2291.41L1177.49,2318.25Z" style="fill:rgb(255,3,62);stroke:rgb(255,3,62);stroke-width:0.06px;"/>
        <path id="path5298" d="M1137.68,2393.94C1134.69,2392.22 1132.22,2393.46 1132.25,2397.48L1132.65,2449.72C1132.68,2453.99 1132.48,2453.77 1136.19,2455.93L1182.17,2482.63C1184.92,2484.22 1187.35,2482.73 1187.32,2479.66L1186.79,2425.6C1186.76,2422.54 1186.3,2421.96 1183.79,2420.51L1137.68,2393.94Z" style="fill:rgb(255,3,62);stroke:rgb(255,3,62);stroke-width:0.06px;"/>
        <path id="path5300" d="M1045.24,2396.8C1049.16,2394.54 1052.41,2396.17 1052.37,2401.46L1051.85,2470.13C1051.81,2475.74 1052.06,2475.45 1047.19,2478.28L986.747,2513.38C983.141,2515.47 979.947,2513.52 979.985,2509.48L980.682,2438.42C980.722,2434.4 981.329,2433.63 984.619,2431.73L1045.24,2396.8Z" style="fill:rgb(255,3,62);stroke:rgb(255,3,62);stroke-width:0.08px;"/>
        <path id="path5304" d="M890.212,1953.4C880.271,1947.67 872.064,1951.81 872.166,1965.18L873.475,2138.99C873.58,2153.2 872.931,2152.45 885.255,2159.62L1038.25,2248.46C1047.38,2253.76 1055.46,2248.8 1055.36,2238.59L1053.6,2058.72C1053.5,2048.55 1051.96,2046.61 1043.63,2041.81L890.212,1953.4Z" style="fill:rgb(255,3,62);stroke:rgb(255,3,62);stroke-width:0.2px;"/>
        <g id="path5306" transform="matrix(1,0,0,1,0,1786.85)">
            <path d="M122.709,906.5C85.128,906.85 33.929,935.432 35.189,997.236C35.527,1013.82 41.961,1085.87 124.497,1087.44C157.99,1088.08 179.43,1075.61 196.482,1061.54C199.855,1058.76 198.988,1056.39 197.91,1054.75L186.655,1037.61C185.319,1035.57 182.827,1035.98 180.764,1037.25C164.952,1046.99 154.795,1057 124.497,1056.54C83.052,1055.92 70.301,1026.42 67.339,1004.02L198.984,1004.02C200.393,1004.02 201.729,1002.38 202.129,999.711C208.618,956.351 180.716,905.958 122.709,906.5ZM122.765,937.172C156.654,936.971 171.038,963.581 169.37,976.076L70.351,976.076C71.068,969.986 81.41,937.416 122.765,937.172L122.765,937.172Z" style="fill:rgb(255,3,62);"/>
        </g>
        <path id="path5313" d="M1077.61,2870.01L1100.47,2870.01C1102.85,2870.01 1105.3,2868.47 1105.3,2865.01L1105.3,2770.36L1185.85,2720.25C1187.55,2719.19 1188.2,2717.05 1187.1,2714.49L1178.84,2695.19C1177.98,2693.19 1175.63,2693.51 1174.08,2694.44L1105.17,2735.53L1104.92,2700.45C1104.9,2697.47 1102.24,2695.11 1099.91,2695.94L1076.86,2704.21C1074.27,2705.14 1073.36,2708.33 1073.36,2711.23L1073.36,2865.32C1073.36,2867.43 1074.74,2870.01 1077.61,2870.01Z" style="fill:rgb(255,3,62);"/>
        <path id="path5315" d="M973.135,2789.65C973.135,2790.59 973.116,2791.54 973.078,2792.48" style="fill:rgb(255,3,62);fill-rule:nonzero;"/>
        <g id="path5319" transform="matrix(1,0,0,1,0,1786.85)">
            <path d="M959.267,906.428C910.907,906.62 871.249,947.646 871.371,997.358C871.495,1047.07 911.355,1087.89 959.716,1087.83C1008.08,1087.77 1047.85,1046.84 1047.84,997.125L1047.84,996.666C1047.59,946.953 1007.63,906.239 959.267,906.428L959.267,906.428ZM959.389,936.85C990.776,936.725 1016.71,964.008 1016.87,997.319L1016.87,997.629C1016.87,1030.94 991.063,1058.36 959.677,1058.4C928.292,1058.44 902.423,1031.09 902.342,997.784C902.26,964.471 928.001,936.977 959.389,936.85Z" style="fill:rgb(255,3,62);fill-rule:nonzero;"/>
        </g>
        <path id="path5324" d="M691.517,2863.31L691.517,2711.48C691.517,2708.1 692.226,2704.79 696.027,2703.46L717.574,2695.94C720.763,2694.83 723.086,2697.12 723.086,2700.45L723.086,2718.49C734.38,2706.3 746.884,2691.73 780.212,2692.94C811.089,2694.05 845.354,2718.48 845.354,2763.09L845.354,2862.81C845.354,2867.05 845.115,2869.32 840.225,2869.32L819.026,2869.32C815.51,2869.32 813.785,2867.26 813.785,2863.81L813.785,2763.59C813.785,2736.45 790.356,2723.77 770.19,2723C743.393,2721.99 723.086,2742.36 723.086,2771.61L723.086,2864.81C723.086,2867.46 720.927,2869.83 718.576,2869.83L697.53,2869.83C694.427,2869.83 691.517,2867.07 691.517,2863.31Z" style="fill:rgb(255,3,62);"/>
        <path id="path5326" d="M623.268,2674.1L623.268,2647.52C623.268,2644.78 624.868,2643.1 627.697,2642.03L649.665,2633.7C653.671,2632.18 656.22,2635.26 656.22,2638.31L656.22,2664.53C656.22,2668.29 654.599,2670.53 651.26,2671.62L629.469,2678.7C625.374,2680.03 623.268,2676.65 623.268,2674.1Z" style="fill:rgb(255,3,62);"/>
        <path id="path5328" d="M624.154,2710.42L624.154,2862.42C624.154,2867.18 625.907,2870.04 628.937,2870.04L649.134,2870.04C652.874,2870.04 655.866,2867.86 655.866,2864.55L655.866,2703.68C655.866,2697.51 652.945,2696.03 649.488,2697.13L627.697,2704.04C624.023,2705.2 624.154,2708.23 624.154,2710.42Z" style="fill:rgb(255,3,62);"/>
        <path id="path5330" d="M587.835,2865.08C587.84,2867.33 585.951,2870.04 582.52,2870.04L562.323,2870.04C559.98,2870.04 556.476,2868.27 556.476,2864.55L556.476,2850.38C544.032,2867.92 524.963,2873.68 504.035,2874.47C468.908,2875.79 446.086,2850.09 439.724,2826.99C435.41,2811.32 434.587,2796.98 434.587,2782.7L434.587,2711.66C434.587,2708.23 434.652,2705.13 439.902,2703.15L459.213,2695.89C464.049,2694.07 466.476,2697.65 466.476,2701.56L466.476,2794.92C466.476,2821.91 480.004,2842.59 510.059,2844C547.526,2845.75 556.476,2819.18 556.476,2792.97L556.476,2712.19C556.476,2708.35 557.771,2705.29 560.728,2704.22L581.28,2696.78C583.925,2695.82 587.472,2698.14 587.48,2701.74L587.835,2865.08Z" style="fill:rgb(255,3,62);"/>
        <g id="path5338" transform="matrix(1,0,0,1,0,1786.85)">
            <path d="M317.918,906.439C316.567,906.469 315.209,906.536 313.837,906.644C262.677,910.649 226.798,942.33 226.495,998.786C226.302,1034.69 249.038,1084.47 311.185,1087.36C333.286,1088.38 353.288,1079.88 371.566,1064.93L371.566,1146.55C371.566,1151.38 372.99,1154.96 378.708,1154.94L396.618,1154.88C401.228,1154.85 402.885,1151.02 402.885,1146.49L402.885,914.605C402.885,908.993 398.927,907.991 395.616,909.34L375.325,917.611C373.062,918.533 371.316,920.638 371.316,923.12L371.316,930.639C356.033,914.248 338.175,905.991 317.918,906.439L317.918,906.439ZM315.709,936.496C354.545,937.455 373.154,967.55 372.402,999.567C371.668,1030.8 351.222,1059.01 313.937,1057.32C284.445,1055.99 260.705,1039.3 259.016,997.441C257.439,958.381 288.472,935.824 315.709,936.496Z" style="fill:rgb(255,3,62);"/>
        </g>
    </g>
</svg>
